assets/Growing heart/Flat/growing_heart_flat.svg

<svg width="32" height="32" viewBox="0 0 32 32" fill="none" xmlns="http://www.w3.org/2000/svg">
<path d="M21.0139 4.1603C18.1717 4.66252 16 8.01733 16 8.01733C16 8.01733 13.8283 4.66252 10.9861 4.1603C3.98056 2.92484 1.08829 9.09208 2.2492 13.6824C3.89996 20.1581 11.58 26.6248 14.6886 29.0244C15.469 29.6268 16.5311 29.6269 17.3115 29.0245C20.4187 26.6265 28.0923 20.1653 29.7508 13.6824C30.9117 9.09208 28.0194 2.92484 21.0139 4.1603Z" fill="#FFB2FF"/>
<path d="M19.9404 7.12135C17.7098 7.50185 16.0016 10.0483 16.0016 10.0483C16.0016 10.0483 14.2934 7.49209 12.0627 7.12135C6.55639 6.18474 4.27547 10.8678 5.19989 14.3606C6.45984 19.1415 12.1735 24.0465 14.7431 26.0555C15.4895 26.639 16.5134 26.6386 17.2595 26.0547C19.8288 24.0438 25.5432 19.1344 26.8033 14.3606C27.7177 10.8678 25.4468 6.18474 19.9404 7.12135Z" fill="#FF6DC6"/>
<path d="M18.4952 11.0841C17.0728 11.3401 15.9938 13.0916 15.9938 13.0916C15.9938 13.0916 14.905 11.3504 13.4924 11.0841C9.99052 10.4388 8.53874 13.6447 9.1273 16.0312C9.86464 19.0455 13.014 21.7919 14.7838 23.1346C15.5119 23.687 16.4951 23.6866 17.2228 23.1338C18.9905 21.7907 22.1358 19.0449 22.8799 16.0312C23.4489 13.6447 21.9971 10.4388 18.4952 11.0841Z" fill="#F92F60"/>
</svg>

<svg xmlns="http://www.w3.org/2000/svg" width="32" height="32" fill="none"><path fill="#FFB2FF" d="M21.014 4.16C18.172 4.663 16 8.017 16 8.017s-2.172-3.354-5.014-3.857C3.981 2.925 1.088 9.092 2.25 13.682 3.9 20.158 11.58 26.625 14.69 29.024a2.13 2.13 0 0 0 2.622 0c3.108-2.398 10.781-8.859 12.44-15.342 1.16-4.59-1.732-10.757-8.737-9.522Z"/><path fill="#FF6DC6" d="M19.94 7.121c-2.23.38-3.938 2.927-3.938 2.927s-1.709-2.556-3.94-2.927c-5.506-.936-7.787 3.747-6.862 7.24 1.26 4.78 6.974 9.686 9.543 11.694.746.584 1.77.584 2.516 0 2.57-2.011 8.284-6.92 9.544-11.694.915-3.493-1.356-8.176-6.863-7.24Z"/><path fill="#F92F60" d="M18.495 11.084c-1.422.256-2.501 2.008-2.501 2.008s-1.089-1.742-2.502-2.008c-3.501-.645-4.953 2.56-4.365 4.947.738 3.015 3.887 5.76 5.657 7.104a2.001 2.001 0 0 0 2.439-.001c1.768-1.343 4.913-4.09 5.657-7.103.569-2.386-.883-5.592-4.385-4.947Z"/></svg>
